src/images/community/event.svg

<svg fill="none" height="30" viewBox="0 0 30 30" width="30" xmlns="http://www.w3.org/2000/svg"><path d="m20 16.25h-3.75c-.6875 0-1.25.5625-1.25 1.25v3.75c0 .6875.5625 1.25 1.25 1.25h3.75c.6875 0 1.25-.5625 1.25-1.25v-3.75c0-.6875-.5625-1.25-1.25-1.25zm0-12.5v1.25h-10v-1.25c0-.6875-.5625-1.25-1.25-1.25s-1.25.5625-1.25 1.25v1.25h-1.25c-1.3875 0-2.4875 1.125-2.4875 2.5l-.0125 17.5c0 .663.26339 1.2989.73223 1.7678.46884.4688 1.10473.7322 1.76777.7322h17.5c1.375 0 2.5-1.125 2.5-2.5v-17.5c0-1.375-1.125-2.5-2.5-2.5h-1.25v-1.25c0-.6875-.5625-1.25-1.25-1.25s-1.25.5625-1.25 1.25zm2.5 21.25h-15c-.6875 0-1.25-.5625-1.25-1.25v-12.5h17.5v12.5c0 .6875-.5625 1.25-1.25 1.25z" fill="#000"/></svg>

<svg width="30" height="30" viewBox="0 0 30 30" fill="none" xmlns="http://www.w3.org/2000/svg">
<path d="M20 16.25H16.25C15.5625 16.25 15 16.8125 15 17.5V21.25C15 21.9375 15.5625 22.5 16.25 22.5H20C20.6875 22.5 21.25 21.9375 21.25 21.25V17.5C21.25 16.8125 20.6875 16.25 20 16.25ZM20 3.75V5H10V3.75C10 3.0625 9.4375 2.5 8.75 2.5C8.0625 2.5 7.5 3.0625 7.5 3.75V5H6.25C4.8625 5 3.7625 6.125 3.7625 7.5L3.75 25C3.75 25.663 4.01339 26.2989 4.48223 26.7678C4.95107 27.2366 5.58696 27.5 6.25 27.5H23.75C25.125 27.5 26.25 26.375 26.25 25V7.5C26.25 6.125 25.125 5 23.75 5H22.5V3.75C22.5 3.0625 21.9375 2.5 21.25 2.5C20.5625 2.5 20 3.0625 20 3.75ZM22.5 25H7.5C6.8125 25 6.25 24.4375 6.25 23.75V11.25H23.75V23.75C23.75 24.4375 23.1875 25 22.5 25Z" fill="black"/>
</svg>
